smiling-axolotl/src/assets/experience/Baobab.svg

<svg width="19" height="15" viewBox="0 0 19 15" fill="none" xmlns="http://www.w3.org/2000/svg">
<path d="M4.64697 3.94114C4.69008 3.94532 4.78426 3.95997 4.80512 3.9963C4.84731 4.16136 4.8493 4.33165 4.88919 4.49745C5.0208 5.04345 5.32239 5.42888 5.84563 5.65837C6.05763 5.75137 6.38329 5.79622 6.52565 5.96741C6.5752 6.02706 6.59821 6.11318 6.64821 6.16191C6.77738 6.2881 7.28605 6.48814 7.47335 6.55377C7.9248 6.7121 8.24924 6.73527 8.48778 7.20966C8.68336 7.59868 8.52413 7.73637 8.39727 8.08966C8.10842 8.89461 8.01024 9.75113 8.09093 10.6016C8.09968 10.694 8.18021 10.9293 8.08464 10.9695L1.19488 10.9836C1.06832 10.9728 1.05038 10.949 1.02369 10.8365C0.755236 9.70284 0.795887 8.27146 1.05728 7.14044C2.35826 1.5085 8.82203 -1.40943 14.089 1.33194C17.4795 3.09657 19.4219 6.9235 18.6857 10.6419C18.6475 10.8348 18.6632 10.9981 18.4075 10.9837H12.2393L12.033 10.968C12.0181 10.9555 12.106 10.8572 12.1175 10.8338C12.1382 10.7912 12.1701 10.6805 12.1673 10.6354L11.2612 7.31746C11.1179 6.92321 11.5432 6.67562 11.8605 6.5614C12.0299 6.5004 12.208 6.51146 12.3017 6.3485C12.5419 5.93078 12.713 5.66361 13.2175 5.50677C13.7227 5.34964 14.2505 5.58945 14.5765 5.05212C14.6975 4.85253 14.7593 4.58402 14.7481 4.35243C14.7447 4.28111 14.6756 3.99855 14.7178 3.96371C14.7217 3.96042 14.7684 3.94114 14.7713 3.94114H15.9448C15.9342 3.89688 15.8736 3.84336 15.8376 3.81391C15.7331 3.72809 15.3317 3.53522 15.2007 3.52267C15.127 3.51564 15.0525 3.53134 14.9775 3.51594C14.8939 3.49874 14.844 3.41906 14.7607 3.39828C14.6774 3.37749 14.5898 3.38706 14.4996 3.36867C14.3665 3.34161 14.2227 3.25953 14.0922 3.24249C13.9616 3.22544 13.8109 3.26192 13.6907 3.18523C13.597 3.12557 13.5535 3.05725 13.4286 3.02212C13.2881 2.98265 13.131 3.04738 13.0627 2.91522C12.9509 2.69858 12.9429 2.55027 12.7619 2.34126C12.0469 1.51598 10.4606 1.44242 9.56464 2.02131C9.46079 2.08844 9.37749 2.17934 9.27686 2.24916C9.0914 2.37819 8.27271 2.76945 8.06393 2.80114C7.9337 2.82088 7.86789 2.75524 7.74977 2.72579C7.40447 2.63983 7.19968 2.71458 6.93277 2.92479C6.86159 2.98085 6.69239 3.16265 6.6068 3.17626C6.56262 3.18328 6.4218 3.06323 6.35691 3.03677C6.07373 2.92105 5.8082 3.07115 5.52058 3.1033C5.30091 3.16235 5.20764 3.39633 4.95776 3.32397C4.70787 3.25161 4.58991 3.16489 4.32713 3.33055C4.20932 3.40485 4.11237 3.60684 4.04657 3.64018C3.96772 3.68025 3.90927 3.63569 3.84638 3.65304C3.71906 3.68802 3.54603 3.84306 3.41211 3.88896L3.39646 3.94099L4.64697 3.94114Z" fill="#FF6101"/>
<path d="M12.8115 3.94472C13.1988 3.96849 13.6558 3.90046 14.035 3.94113C14.1009 3.94816 14.1539 3.96251 14.1509 4.03771C14.1476 4.12562 14.0193 4.39115 13.9686 4.47442C13.878 4.62288 13.7088 4.79825 13.5751 4.91323C13.4048 5.05974 13.2675 5.16215 13.0836 4.95778C12.911 4.76611 12.7292 4.32058 12.7228 4.06731C12.721 3.9948 12.7339 3.95847 12.8115 3.94472Z" fill="#FF6101"/>
<path d="M12.0479 3.97101C12.0548 4.00181 12.0752 4.01826 12.0796 4.0525C12.101 4.218 12.1033 4.51552 12.0772 4.67953C12.0256 5.00486 11.7144 5.16842 11.4193 5.25693L11.7213 5.37339C11.7906 5.41794 11.8291 5.46324 11.8192 5.54876C11.806 5.66149 11.5509 5.61156 11.5142 5.73086C11.478 5.84838 11.6334 5.90952 11.6337 5.92193C11.4302 6.17206 11.2315 5.95587 11.087 5.7811C10.9463 5.83387 10.8635 5.87962 10.7052 5.8702C10.1117 5.83492 10.2737 5.19533 10.6472 4.9452C10.8492 4.8099 11.2415 4.71227 11.419 4.92024C11.3192 5.01951 11.1729 5.00904 11.0407 5.05958C10.8569 5.12969 10.4797 5.38909 10.5149 5.60707C10.5587 5.87708 11.1416 5.64699 11.2964 5.58569C11.2629 5.71158 11.2395 5.86258 11.4038 5.89936C11.3528 5.75598 11.3321 5.71472 11.4496 5.60782L11.5957 5.49569C11.4918 5.39582 11.3484 5.42079 11.2139 5.43783C11.1261 5.44904 11.0126 5.49255 10.9357 5.49599C10.9049 5.49733 10.9046 5.48268 10.9146 5.46011C10.9431 5.39462 11.5558 5.066 11.6693 4.98467C11.8009 4.89033 11.9287 4.79704 11.8469 4.62272C11.8103 4.54452 11.771 4.56142 11.7909 4.44525C11.7998 4.39367 11.9684 4.022 12.0014 3.99269C12.0163 3.97939 12.0235 3.96578 12.0479 3.97101Z" fill="#FF6101"/>
<path d="M6.72109 3.94453C7.03985 3.88114 6.96745 4.08941 6.98616 4.27734C7.00472 4.46347 7.06056 4.64513 7.14156 4.81362C7.18481 4.90362 7.31597 5.07212 7.30738 5.15779C7.29388 5.29204 7.08449 5.42495 7.06409 5.56445C7.0397 5.7304 7.14248 5.77645 7.18819 5.90472C7.21549 5.98142 7.10413 5.91325 7.07329 5.89665C6.50572 5.5921 6.37088 4.61552 6.59499 4.0758C6.62061 4.01391 6.647 3.95919 6.72109 3.94453Z" fill="#FF6101"/>
<path d="M7.72807 4.32463C7.67745 4.27529 7.53694 4.09753 7.52574 4.03459C7.51301 3.96297 7.56946 3.95654 7.62698 3.94518C8.13581 3.9694 8.70093 3.89943 9.20346 3.9407C9.41316 3.95789 9.35748 4.04072 9.26912 4.17019C8.92965 4.6676 8.16296 4.74848 7.72807 4.32463Z" fill="#FF6101"/>
<path d="M10.0984 3.9731C10.1058 4.01766 10.1013 4.06206 10.0936 4.10631C10.0234 4.51581 9.60384 4.72064 9.43832 5.0971C9.35502 5.28637 9.35165 5.46802 9.2952 5.66029C9.22632 5.89487 9.1757 6.00132 8.94269 5.8095C8.64402 5.56356 8.66166 5.1122 8.96662 4.87672C9.25485 4.65411 9.49615 4.64693 9.71398 4.28946C9.8166 4.12111 9.82565 3.84572 10.0984 3.9731Z" fill="#FF6101"/>
<path d="M8.15572 5.81565C8.14943 5.81774 8.16585 5.85198 8.10571 5.83314C8.03224 5.78575 7.50807 5.60051 7.49457 5.56074C7.48706 5.53876 7.49058 5.51694 7.5004 5.49615C7.52633 5.44158 7.72835 5.28893 7.78358 5.21896C7.81042 5.18502 7.84447 5.1442 7.84524 5.10085C7.84018 5.02131 7.67282 4.92907 7.61499 4.8757C7.42999 4.70496 7.28902 4.51403 7.22413 4.26989C7.20557 4.20022 7.13301 3.93799 7.27414 3.96595C7.3763 3.98613 7.40545 4.15178 7.45377 4.24028C7.6584 4.61615 8.03147 4.81051 8.45255 4.88152C8.54505 4.92159 8.3984 5.07051 8.36388 5.14182C8.31464 5.24379 8.26878 5.39164 8.25957 5.50362C8.25451 5.56582 8.27599 5.71847 8.26095 5.75779C8.23442 5.82761 8.19836 5.8019 8.15572 5.81565Z" fill="#FF6101"/>
<path d="M5.8941 3.94546C5.98231 3.9359 6.3928 3.92752 6.44864 3.96415C6.46475 3.97462 6.47242 3.99375 6.47702 4.01155C6.44297 4.29995 6.33804 4.60554 6.31334 4.89244C6.30583 4.97975 6.3296 5.27518 6.29493 5.32302C6.25459 5.37864 6.04152 5.33977 5.97832 5.30478C5.94657 5.28714 5.8803 5.2254 5.8599 5.19594C5.73012 5.0101 5.65956 4.27288 5.71693 4.05685C5.74301 3.95862 5.80191 3.95563 5.8941 3.94546Z" fill="#FF6101"/>
<path d="M11.711 3.97115C11.7443 4.01631 11.4001 4.26045 11.3541 4.28826C11.1565 4.40816 10.9804 4.3968 10.7629 4.44464C10.5963 4.48127 10.4288 4.52687 10.2693 4.58383C10.245 4.55752 10.3487 4.16581 10.369 4.10556C10.3892 4.04531 10.4001 3.99074 10.4641 3.95904C10.8799 3.9562 11.2975 3.91344 11.711 3.97115Z" fill="#FF6101"/>
<path d="M14.3918 3.94425C14.5209 3.92631 14.5643 3.9761 14.5903 4.08748C14.6312 4.26345 14.6016 4.55873 14.5363 4.72857C14.4734 4.89228 14.2568 5.01353 14.081 5.01831C13.7397 5.02773 13.9492 4.83367 14.0298 4.68356C14.1126 4.52912 14.1759 4.38814 14.2306 4.22144C14.2674 4.10901 14.2506 3.96384 14.3918 3.94425Z" fill="#FF6101"/>
<path d="M5.14181 3.94517C5.21391 3.93455 5.56228 3.93082 5.61474 3.95459C5.62962 3.96132 5.64373 3.96251 5.65002 3.9806C5.65892 4.00602 5.56565 4.33344 5.55967 4.41223C5.55001 4.54051 5.55568 4.70063 5.5589 4.8313C5.56075 4.91113 5.61505 5.02999 5.53651 5.09204C5.29889 4.86942 5.14519 4.56817 5.07616 4.25525C5.06205 4.19141 5.01342 4.01559 5.06082 3.97088C5.08321 3.95504 5.11496 3.94906 5.14181 3.94517Z" fill="#FF6101"/>
<path d="M14.6053 12.4808L14.3493 12.6723V11.693C14.3493 11.5753 14.1234 11.5532 14.0569 11.6174C14.0287 11.6446 14.024 11.703 14.0135 11.7397L14.0112 14.1008C14.0194 14.1866 14.0336 14.2278 14.1283 14.2409C14.3053 14.2654 14.3486 14.2115 14.3648 14.048C14.4762 14.1537 14.6121 14.2526 14.7729 14.2707C16.1702 14.4282 16.0103 11.8797 14.6053 12.4808ZM15.0238 13.98C14.8532 14.0303 14.6388 14.0017 14.5081 13.8779C14.2064 13.5923 14.295 12.7286 14.8057 12.6611C15.5787 12.559 15.5568 13.8228 15.0238 13.98Z" fill="#FF6101"/>
<path d="M5.39891 12.6423C5.09273 12.2838 4.58068 12.3221 4.2564 12.6361L4.22526 12.6202V11.7082C4.22526 11.5424 3.92322 11.4956 3.88916 11.7395L3.88732 14.086C3.86907 14.318 4.27143 14.2986 4.22541 14.0631C4.33095 14.1086 4.38801 14.1923 4.50168 14.2347C5.41195 14.5753 5.91816 13.2502 5.39891 12.6423ZM4.64726 14.0027C4.44707 13.984 4.25256 13.7998 4.22649 13.6055C4.19611 13.3778 4.21038 12.9705 4.38403 12.7972C4.61075 12.571 5.05714 12.6181 5.19459 12.9161C5.38787 13.3354 5.23677 14.0579 4.64726 14.0027Z" fill="#FF6101"/>
<path d="M11.0136 12.3879C10.7364 12.372 10.5282 12.5002 10.3457 12.6873V11.7081C10.3457 11.6891 10.2987 11.6094 10.2772 11.5953C10.1582 11.5183 10.0283 11.6091 10.0252 11.7396C10.0709 12.4982 9.95848 13.3362 10.0229 14.0857C10.0292 14.1595 10.0369 14.227 10.124 14.2412C10.191 14.2521 10.3035 14.25 10.334 14.1785C10.3544 14.1308 10.3294 14.0807 10.3684 14.048C10.4957 14.1749 10.6294 14.2527 10.8152 14.27C11.951 14.3762 12.0704 12.4484 11.0136 12.3879ZM10.6836 13.9801C10.1838 13.8321 10.2059 12.7261 10.8332 12.6616C11.6801 12.5746 11.5666 14.2416 10.6836 13.9801Z" fill="#FF6101"/>
<path d="M7.34702 12.8216C7.23274 12.3755 6.7434 12.3185 6.35069 12.434C6.14054 12.4957 6.00938 12.6022 6.11185 12.83C6.15542 12.8562 6.21003 12.7883 6.2496 12.7689C6.44642 12.6717 6.76334 12.5817 6.94082 12.7541C7.0143 12.8254 7.0841 12.9744 7.01813 13.0656C6.98132 13.1165 6.86949 13.1003 6.81427 13.1099C6.35376 13.1899 5.7664 13.2679 5.91995 13.8837C6.03178 14.3324 6.6328 14.3795 6.94772 14.107L7.0324 14.0178C7.06093 14.1751 7.04237 14.2571 7.23949 14.2418C7.33475 14.2343 7.36712 14.2194 7.38138 14.1259C7.41805 13.8852 7.40607 13.0522 7.34702 12.8216ZM6.9939 13.7486C6.89526 13.9588 6.64353 14.0551 6.4188 13.9803C6.16462 13.8957 6.17383 13.5297 6.41543 13.4539C6.51775 13.4218 6.83298 13.3651 6.93729 13.3636C7.11217 13.3611 7.04007 13.6504 6.9939 13.7486Z" fill="#FF6101"/>
<path d="M13.5049 13.7269C13.4968 13.1142 13.6649 12.3138 12.7355 12.3927C12.6134 12.403 12.2882 12.4761 12.2259 12.5838C12.1895 12.6469 12.1753 12.8568 12.2825 12.8342C12.3208 12.8261 12.4126 12.7524 12.4673 12.7292C12.6158 12.6665 12.9064 12.631 13.0443 12.7255C13.1472 12.7959 13.2161 12.9779 13.1369 13.0828C13.0185 13.1181 12.8752 13.1175 12.7485 13.1379C12.4402 13.1872 12.1389 13.2633 12.0528 13.5961C11.8772 14.275 12.7737 14.4915 13.1604 14.033C13.2075 14.0325 13.1397 14.2239 13.298 14.2423C13.4348 14.2581 13.508 14.242 13.5213 14.1005C13.5333 13.9745 13.5064 13.846 13.5049 13.7269ZM13.1351 13.7241C13.042 13.9516 12.7951 14.0558 12.5546 13.9803C12.3058 13.9021 12.3026 13.5349 12.5511 13.4539C12.6551 13.42 12.966 13.365 13.0729 13.3636C13.2478 13.3614 13.176 13.6238 13.1351 13.7241Z" fill="#FF6101"/>
<path d="M8.5781 12.3923C8.13018 12.4417 7.80098 12.781 7.76785 13.2172C7.66737 14.5407 9.41259 14.6338 9.57673 13.5151C9.67322 12.8574 9.30889 12.3117 8.5781 12.3923ZM8.62182 14.001C7.90898 13.9446 7.94012 12.7512 8.5778 12.6612C8.9481 12.6089 9.20075 12.8293 9.25229 13.1772C9.31748 13.6179 9.14675 14.0425 8.62182 14.001Z" fill="#FF6101"/>
</svg>

<svg xmlns="http://www.w3.org/2000/svg" width="19" height="15" fill="none"><path fill="#FF6101" d="M4.647 3.941c.043.004.137.019.158.055.042.165.044.336.084.501.132.546.433.932.957 1.161.212.093.537.138.68.31.05.06.072.145.122.194.13.126.638.326.825.392.452.158.776.181 1.015.656.195.389.036.526-.09.88a5.8 5.8 0 0 0-.307 2.512c.009.092.09.327-.006.367l-6.89.015c-.127-.011-.145-.035-.171-.148-.269-1.133-.228-2.565.033-3.696C2.358 1.51 8.822-1.41 14.09 1.332c3.39 1.765 5.333 5.592 4.597 9.31-.038.193-.023.356-.279.342H12.24l-.206-.016c-.015-.012.073-.11.085-.134a.6.6 0 0 0 .05-.199l-.907-3.318c-.143-.394.282-.641.6-.756.169-.06.347-.05.44-.213.24-.417.412-.684.916-.841.506-.157 1.034.082 1.36-.455.12-.2.182-.468.171-.7-.003-.07-.072-.353-.03-.388l.053-.023h1.174c-.01-.044-.071-.098-.107-.127-.105-.086-.506-.279-.637-.291-.074-.007-.149.008-.224-.007-.083-.017-.133-.097-.216-.118-.084-.02-.171-.01-.261-.03-.133-.026-.277-.108-.408-.126-.13-.017-.281.02-.401-.057-.094-.06-.138-.128-.262-.163-.14-.04-.298.025-.366-.107-.112-.216-.12-.365-.301-.574-.715-.825-2.301-.899-3.197-.32-.104.067-.188.158-.288.228-.186.13-1.004.52-1.213.552-.13.02-.196-.046-.314-.075-.346-.086-.55-.011-.817.199-.071.056-.24.238-.326.251-.044.007-.185-.113-.25-.14-.283-.115-.549.035-.836.067-.22.06-.313.293-.563.221s-.368-.16-.63.007c-.119.074-.216.276-.281.31-.08.04-.138-.005-.2.012-.128.035-.301.19-.435.236l-.016.052z"/><path fill="#FF6101" d="M12.812 3.945c.387.023.844-.045 1.223-.004.066.007.119.022.116.097-.003.088-.132.353-.182.436-.091.149-.26.324-.394.44-.17.146-.307.248-.491.044-.173-.192-.355-.637-.361-.89-.002-.073.01-.11.088-.123M12.048 3.971c.007.03.027.047.032.082.021.165.023.463-.003.627-.051.325-.363.488-.658.577l.302.116c.07.045.108.09.098.176-.013.112-.268.063-.305.182-.036.117.12.179.12.19-.204.251-.402.035-.547-.14-.14.053-.223.099-.382.09-.593-.036-.431-.676-.058-.926.202-.135.595-.233.772-.025-.1.1-.246.089-.378.14-.184.07-.561.33-.526.547.044.27.627.04.781-.021-.033.126-.056.277.108.313-.051-.143-.072-.184.046-.291l.146-.112c-.104-.1-.248-.075-.382-.058-.088.011-.201.055-.278.058-.031.001-.031-.013-.021-.036.028-.065.64-.394.754-.475.132-.095.26-.188.178-.362-.037-.078-.076-.062-.056-.178.009-.051.177-.423.21-.452.015-.014.023-.027.047-.022M6.721 3.945c.319-.064.246.144.265.332.019.186.075.368.156.537.043.09.174.258.165.344-.013.134-.223.267-.243.406-.024.166.078.212.124.34.027.077-.084.01-.115-.007-.567-.305-.702-1.281-.478-1.821.026-.062.052-.117.126-.131M7.728 4.325c-.05-.05-.191-.227-.202-.29-.013-.072.043-.078.101-.09.509.024 1.074-.046 1.576-.004.21.017.154.1.066.23-.34.497-1.106.577-1.54.154M10.098 3.973a.4.4 0 0 1-.004.133c-.07.41-.49.615-.656.991-.083.19-.086.371-.143.563-.069.235-.12.341-.352.15a.594.594 0 0 1 .024-.933c.288-.223.53-.23.747-.588.103-.168.112-.443.384-.316"/><path fill="#FF6101" d="M8.156 5.816c-.007.002.01.036-.05.017-.074-.047-.598-.232-.611-.272a.08.08 0 0 1 .005-.065c.026-.054.228-.207.284-.277.026-.034.06-.075.061-.118-.005-.08-.172-.172-.23-.225a1.26 1.26 0 0 1-.39-.606c-.02-.07-.092-.332.05-.304.101.02.13.186.179.274.204.376.577.57.999.642.092.04-.055.189-.09.26-.048.102-.094.25-.103.362-.005.062.016.214 0 .254-.026.07-.062.044-.104.058M5.894 3.945c.088-.01.499-.017.555.02.016.01.023.029.028.047-.034.288-.139.594-.164.88-.007.088.017.383-.018.431-.04.056-.253.017-.317-.018a.5.5 0 0 1-.118-.11c-.13-.185-.2-.922-.143-1.138.026-.098.085-.101.177-.112M11.711 3.971c.033.045-.31.29-.357.317-.197.12-.374.109-.591.157a4 4 0 0 0-.494.139c-.024-.026.08-.418.1-.478s.031-.115.095-.147c.416-.003.833-.046 1.247.012M14.392 3.944c.129-.018.172.032.198.143.041.176.012.472-.054.642-.063.163-.28.285-.455.29-.341.009-.132-.185-.051-.335.083-.155.146-.296.2-.463.037-.112.02-.257.162-.277M5.142 3.945c.072-.01.42-.014.473.01.015.006.029.008.035.026.009.025-.084.352-.09.431-.01.129-.004.289-.001.42.002.08.056.198-.022.26a1.63 1.63 0 0 1-.46-.837c-.015-.064-.064-.24-.016-.284a.2.2 0 0 1 .08-.026M14.605 12.48l-.256.192v-.979c0-.118-.226-.14-.292-.076-.028.028-.033.086-.043.123l-.003 2.36c.008.087.023.128.117.14.177.025.22-.029.237-.192.111.106.247.205.408.223 1.397.157 1.237-2.391-.168-1.79m.419 1.5c-.17.05-.385.022-.516-.102-.302-.286-.213-1.15.298-1.217.773-.102.75 1.162.218 1.319M5.399 12.642c-.306-.358-.818-.32-1.143-.006l-.03-.016v-.912c0-.166-.303-.212-.337.031l-.002 2.347c-.018.232.384.213.338-.023.106.046.163.13.277.172.91.34 1.416-.985.897-1.593m-.752 1.36a.5.5 0 0 1-.42-.397c-.03-.227-.017-.635.157-.808.227-.226.673-.179.81.12.194.418.043 1.14-.547 1.086M11.014 12.388c-.278-.016-.486.112-.668.3v-.98a.3.3 0 0 0-.069-.113c-.119-.077-.249.014-.252.145.046.758-.067 1.596-.002 2.346.006.073.014.141.101.155.067.011.18.009.21-.062.02-.048-.005-.098.034-.131a.7.7 0 0 0 .447.222c1.136.106 1.255-1.822.199-1.882m-.33 1.592c-.5-.148-.478-1.254.15-1.318.846-.087.733 1.58-.15 1.318M7.347 12.822c-.114-.446-.604-.503-.996-.388-.21.062-.342.168-.24.396.044.026.099-.042.139-.061.196-.097.513-.187.69-.015.074.071.144.22.078.312-.037.05-.149.034-.204.044-.46.08-1.048.158-.894.774.112.448.713.495 1.028.223l.084-.09c.029.158.01.24.207.225.096-.008.128-.023.142-.116.037-.24.025-1.074-.034-1.304m-.353.927a.47.47 0 0 1-.575.231c-.254-.084-.245-.45-.004-.526.103-.032.418-.089.522-.09.175-.003.103.286.057.385M13.505 13.727c-.008-.613.16-1.413-.77-1.334-.122.01-.447.083-.51.19-.035.064-.05.274.058.251.038-.008.13-.082.184-.105.149-.062.44-.098.577-.003.103.07.172.252.093.357-.119.035-.262.034-.389.055-.308.05-.61.125-.695.458-.176.679.72.896 1.107.437.047 0-.02.19.138.21.137.015.21-.001.223-.143.012-.125-.015-.254-.016-.373m-.37-.003a.46.46 0 0 1-.58.256c-.25-.078-.252-.445-.004-.526a3 3 0 0 1 .522-.09c.175-.003.103.26.062.36M8.578 12.392a.89.89 0 0 0-.81.825c-.1 1.324 1.645 1.417 1.809.298.096-.658-.268-1.203-.999-1.123m.044 1.609c-.713-.056-.682-1.25-.044-1.34.37-.052.623.168.674.516.065.44-.105.866-.63.824"/></svg>
